<?xml version="1.0" encoding="UTF-8"?>
<map version="1.10" tiledversion="1.12.1" orientation="orthogonal" renderorder="right-down" width="50" height="50" tilewidth="32" tileheight="32" infinite="0" nextlayerid="8" nextobjectid="1">
 <editorsettings>
  <export target="../src/assets/map/mapa1.tmj" format="json"/>
 </editorsettings>
 <tileset firstgid="1" source="solo.tsx"/>
 <tileset firstgid="257" source="casa1.tsx"/>
 <tileset firstgid="1793" source="Solo2.tsx"/>
 <tileset firstgid="3314" source="arcadia2.tsx"/>
 <tileset firstgid="4850" source="solo3.tsx"/>
 <layer id="3" name="ground" width="50" height="50">
  <data encoding="csv">
4850,4851,4852,4853,4854,4855,4856,4857,4858,4859,4860,4861,4862,4863,4864,4865,4866,4867,4868,4869,4870,4871,4872,4873,4874,4875,4876,4877,4878,4879,4880,4881,4882,4883,4884,4885,4886,4887,4888,4850,4851,4852,4853,4854,4855,4856,4857,5708,5709,5710,
4889,4890,4891,4892,4893,4894,4895,4896,4897,4898,4899,4900,4901,4902,4903,4904,4905,4906,4907,4908,4909,4910,4911,4912,4913,4914,4915,4916,4917,4918,4919,4920,4921,4922,4923,4924,4925,4926,4927,4889,4890,4891,4892,4893,4894,4895,4896,5747,5748,5749,
4928,4929,4930,4931,4932,4933,4934,4935,4936,4937,4938,4939,4940,4941,4942,4943,4944,4945,4946,4947,4948,4949,4950,4951,4952,4953,4954,4955,4956,4957,4958,4959,4960,4961,4962,4963,4964,4965,4966,4928,4929,4930,4931,4932,4933,4934,4935,5786,5787,5788,
4967,4968,4969,4970,4971,4972,4973,4974,4975,4976,4977,4978,4979,4980,4981,4982,4983,4984,4985,4986,4987,4988,4989,4990,4991,4992,4993,4994,4995,4996,4997,4998,4999,5000,5001,5002,5003,5004,5005,4967,4968,4969,4970,4971,4972,4973,4974,5825,5826,5827,
5006,5007,5008,5009,5010,5011,5012,5013,5014,5015,5016,5017,5018,5019,5020,5021,5022,5023,5024,5025,5026,5027,5028,5029,5030,5031,5032,5033,5034,5035,5036,5037,5038,5039,5040,5041,5042,5043,5044,5006,5007,5008,5009,5010,5011,5012,5013,5864,5865,5866,
5045,5046,5047,5048,5049,5050,5051,5052,5053,5054,5055,5056,5057,5058,5059,5060,5061,5062,5063,5064,5065,5066,5067,5068,5069,5070,5071,5072,5073,5074,5075,5076,5077,5078,5079,5080,5081,5082,5083,5045,5046,5047,5048,5049,5050,5051,5052,5903,5904,5905,
5084,5085,5086,5087,5088,5089,5090,5091,5092,5093,5094,5095,5096,5097,5098,5099,5100,5101,5102,5103,5104,5105,5106,5107,5108,5109,5110,5111,5112,5113,5114,5115,5116,5117,5118,5119,5120,5121,5122,5084,5085,5086,5087,5088,5089,5090,5091,5942,5943,5944,
5123,5124,5125,5126,5127,5128,5129,5130,5131,5132,5133,5134,5135,5136,5137,5138,5139,5140,5141,5142,5143,5144,5145,5146,5147,5148,5149,5150,5151,5152,5153,5154,5155,5156,5157,5158,5159,5160,5161,5123,5124,5125,5126,5127,5128,5129,5130,5981,5982,5983,
5162,5163,5164,5165,5166,5167,5168,5169,5170,5171,5172,5173,5174,5175,5176,5177,5178,5179,5180,5181,5182,5183,5184,5185,5186,5187,5188,5189,5190,5191,5192,5193,5194,5195,5196,5197,5198,5199,5200,5162,5163,5164,5165,5166,5167,5168,5169,6020,6021,6022,
5201,5202,5203,5204,5205,5206,5207,5208,5209,5210,5211,5212,5213,5214,5215,5216,5217,5218,5219,5220,5221,5222,5223,5224,5225,5226,5227,5228,5229,5230,5231,5232,5233,5234,5235,5236,5237,5238,5239,5201,5202,5203,5204,5205,5206,5207,5208,6059,6060,6061,
5240,5241,5242,5243,5244,5245,5246,5247,5248,5249,5250,5251,5252,5253,5254,5255,5256,5257,5258,5259,5260,5261,5262,5263,5264,5265,5266,5267,5268,5269,5270,5271,5272,5273,5274,5275,5276,5277,5278,5240,5241,5242,5243,5244,5245,5246,5247,6098,6099,6100,
5279,5280,5281,5282,5283,5284,5285,5286,5287,5288,5289,5290,5291,5292,5293,5294,5295,5296,5297,5298,5299,5300,5301,5302,5303,5304,5305,5306,5307,5308,5309,5310,5311,5312,5313,5314,5315,5316,5317,5279,5280,5281,5282,5283,5284,5285,5286,6137,6138,6139,
5318,5319,5320,5321,5322,5323,5324,5325,5326,5327,5328,5329,5330,5331,5332,5333,5334,5335,5336,5337,5338,5339,5340,5341,5342,5343,5344,5345,5346,5347,5348,5349,5350,5351,5352,5353,5354,5355,5356,5318,5319,5320,5321,5322,5323,5324,5325,6176,6177,6178,
5357,5358,5359,5360,5361,5362,5363,5364,5365,5366,5367,5368,5369,5370,5371,5372,5373,5374,5375,5376,5377,5378,5379,5380,5381,5382,5383,5384,5385,5386,5387,5388,5389,5390,5391,5392,5393,5394,5395,5357,5358,5359,5360,5361,5362,5363,5364,6215,6216,6217,
5396,5397,5398,5399,5400,5401,5402,5403,5404,5405,5406,5407,5408,5409,5410,5411,5412,5413,5414,5415,5416,5417,5418,5419,5420,5421,5422,5423,5424,5425,5426,5427,5428,5429,5430,5431,5432,5433,5434,5396,5397,5398,5399,5400,5401,5402,5403,6254,6255,6256,
5435,5436,5437,5438,5439,5440,5441,5442,5443,5444,5445,5446,5447,5448,5449,5450,5451,5452,5453,5454,5455,5456,5457,5458,5459,5460,5461,5462,5463,5464,5465,5466,5467,5468,5469,5470,5471,5472,5473,5435,5436,5437,5438,5439,5440,5441,5442,6293,6294,6295,
5474,5475,5476,5477,5478,5479,5480,5481,5482,5483,5484,5485,5486,5487,5488,5489,5490,5491,5492,5493,5494,5495,5496,5497,5498,5499,5500,5501,5502,5503,5504,5505,5506,5507,5508,5509,5510,5511,5512,5474,5475,5476,5477,5478,5479,5480,5481,6332,6333,6334,
5513,5514,5515,5516,5517,5518,5519,5520,5521,5522,5523,5524,5525,5526,5527,5528,5529,5530,5531,5532,5533,5534,5535,5536,5537,5538,5539,5540,5541,5542,5543,5544,5545,5546,5547,5548,5549,5550,5551,5513,5514,5515,5516,5517,5518,5519,5520,5521,5522,5523,
5552,5553,5554,5555,5556,5557,5558,5559,5560,5561,5562,5563,5564,5565,5566,5567,5568,5569,5570,5571,5572,5573,5574,5575,5576,5577,5578,5579,5580,5581,5582,5583,5584,5585,5586,5587,5588,5589,5590,5552,5553,5554,5555,5556,5557,5558,5559,5560,5561,5562,
5591,5592,5593,5594,5595,5596,5597,5598,5599,5600,5601,5602,5603,5604,5605,5606,5607,5608,5609,5610,5611,5612,5613,5614,5615,5616,5617,5618,5619,5620,5621,5622,5623,5624,5625,5626,5627,5628,5629,5591,5592,5593,5594,5595,5596,5597,5598,5599,5600,5601,
5630,5631,5632,5633,5634,5635,5636,5637,5638,5639,5640,5641,5642,5643,5644,5645,5646,5647,5648,5649,5650,5651,5652,5653,5654,5655,5656,5657,5658,5659,5660,5661,5662,5663,5664,5665,5666,5667,5668,5630,5631,5632,5633,5634,5635,5636,5637,5638,5639,5640,
5669,5670,5671,5672,5673,5674,5675,5676,5677,5678,5679,5680,5681,5682,5683,5684,5685,5686,5687,5688,5689,5690,5691,5692,5693,5694,5695,5696,5697,5698,5699,5700,5701,5702,5703,5704,5705,5706,5707,5669,5670,5671,5672,5673,5674,5675,5676,5677,5678,5679,
5708,5709,5710,5711,5712,5713,5714,5715,5716,5717,5718,5719,5720,5721,5722,5723,5724,5725,5726,5727,5728,5729,5730,5731,5732,5733,5734,5735,5736,5737,5738,5739,5740,5741,5742,5743,5744,5745,5746,5708,5709,5710,5711,5712,5713,5714,5715,5716,5717,5718,
5747,5748,5749,5750,5751,5752,5753,5754,5755,5756,5757,5758,5759,5760,5761,5762,5763,5764,5765,5766,5767,5768,5769,5770,5771,5772,5773,5774,5775,5776,5777,5778,5779,5780,5781,5782,5783,5784,5785,5747,5748,5749,5750,5751,5752,5753,5754,5755,5756,5757,
5786,5787,5788,5789,5790,5791,5792,5793,5794,5795,5796,5797,5798,5799,5800,5801,5802,5803,5804,5805,5806,5807,5808,5809,5810,5811,5812,5813,5814,5815,5816,5817,5818,5819,5820,5821,5822,5823,5824,5786,5787,5788,5789,5790,5791,5792,5793,5794,5795,5796,
5825,5826,5827,5828,5829,5830,5831,5832,5833,5834,5835,5836,5837,5838,5839,5840,5841,5842,5843,5844,5845,5846,5847,5848,5849,5850,5851,5852,5853,5854,5855,5856,5857,5858,5859,5860,5861,5862,5863,5825,5826,5827,5828,5829,5830,5831,5832,5833,5834,5835,
5864,5865,5866,5867,5868,5869,5870,5871,5872,5873,5874,5875,5876,5877,5878,5879,5880,5881,5882,5883,5884,5885,5886,5887,5888,5889,5890,5891,5892,5893,5894,5895,5896,5897,5898,5899,5900,5901,5902,5864,5865,5866,5867,5868,5869,5870,5871,5872,5873,5874,
5903,5904,5905,5906,5907,5908,5909,5910,5911,5912,5913,5914,5915,5916,5917,5918,5919,5920,5921,5922,5923,5924,5925,5926,5927,5928,5929,5930,5931,5932,5933,5934,5935,5936,5937,5938,5939,5940,5941,5903,5904,5905,5906,5907,5908,5909,5910,5911,5912,5913,
5942,5943,5944,5945,5946,5947,5948,5949,5950,5951,5952,5953,5954,5955,5956,5957,5958,5959,5960,5961,5962,5963,5964,5965,5966,5967,5968,5969,5970,5971,5972,5973,5974,5975,5976,5977,5978,5979,5980,5942,5943,5944,5945,5946,5947,5948,5949,5950,5951,5952,
5981,5982,5983,5984,5985,5986,5987,5988,5989,5990,5991,5992,5993,5994,5995,5996,5997,5998,5999,6000,6001,6002,6003,6004,6005,6006,6007,6008,6009,6010,6011,6012,6013,6014,6015,6016,6017,6018,6019,5981,5982,5983,5984,5985,5986,5987,5988,5989,5990,5991,
6020,6021,6022,6023,6024,6025,6026,6027,6028,6029,6030,6031,6032,6033,6034,6035,6036,6037,6038,6039,6040,6041,6042,6043,6044,6045,6046,6047,6048,6049,6050,6051,6052,6053,6054,6055,6056,6057,6058,6020,6021,6022,6023,6024,6025,6026,6027,6028,6029,6030,
6059,6060,6061,6062,6063,6064,6065,6066,6067,6068,6069,6070,6071,6072,6073,6074,6075,6076,6077,6078,6079,6080,6081,6082,6083,6084,6085,6086,6087,6088,6089,6090,6091,6092,6093,6094,6095,6096,6097,6059,6060,6061,6062,6063,6064,6065,6066,6067,6068,6069,
6098,6099,6100,6101,6102,6103,6104,6105,6106,6107,6108,6109,6110,6111,6112,6113,6114,6115,6116,6117,6118,6119,6120,6121,6122,6123,6124,6125,6126,6127,6128,6129,6130,6131,6132,6133,6134,6135,6136,6098,6099,6100,6101,6102,6103,6104,6105,6106,6107,6108,
6137,6138,6139,6140,6141,6142,6143,6144,6145,6146,6147,6148,6149,6150,6151,6152,6153,6154,6155,6156,6157,6158,6159,6160,6161,6162,6163,6164,6165,6166,6167,6168,6169,6170,6171,6172,6173,6174,6175,6137,6138,6139,6140,6141,6142,6143,6144,6145,6146,6147,
6176,6177,6178,6179,6180,6181,6182,6183,6184,6185,6186,6187,6188,6189,6190,6191,6192,6193,6194,6195,6196,6197,6198,6199,6200,6201,6202,6203,6204,6205,6206,6207,6208,6209,6210,6211,6212,6213,6214,6176,6177,6178,6179,6180,6181,6182,6183,6184,6185,6186,
6215,6216,6217,6218,6219,6220,6221,6222,6223,6224,6225,6226,6227,6228,6229,6230,6231,6232,6233,6234,6235,6236,6237,6238,6239,6240,6241,6242,6243,6244,6245,6246,6247,6248,6249,6250,6251,6252,6253,6215,6216,6217,6218,6219,6220,6221,6222,6223,6224,6225,
6254,6255,6256,6257,6258,6259,6260,6261,6262,6263,6264,6265,6266,6267,6268,6269,6270,6271,6272,6273,6274,6275,6276,6277,6278,6279,6280,6281,6282,6283,6284,6285,6286,6287,6288,6289,6290,6291,6292,6254,6255,6256,6257,6258,6259,6260,6261,6262,6263,6264,
6293,6294,6295,6296,6297,6298,6299,6300,6301,6302,6303,6304,6305,6306,6307,6308,6309,6310,6311,6312,6313,6314,6315,6316,6317,6318,6319,6320,6321,6322,6323,6324,6325,6326,6327,6328,6329,6330,6331,6293,6294,6295,6296,6297,6298,6299,6300,6301,6302,6303,
6332,6333,6334,6335,6336,6337,6338,6339,6340,6341,6342,6343,6344,6345,6346,6347,6348,6349,6350,6351,6352,6353,6354,6355,6356,6357,6358,6359,6360,6361,6362,6363,6364,6365,6366,6367,6368,6369,6370,6332,6333,6334,6335,6336,6337,6338,6339,6340,6341,6342,
4850,4851,4852,4853,4854,4855,4856,4857,4858,4859,4860,4861,4862,4863,4864,4865,4866,4867,4868,4869,4870,4871,4872,4873,4874,4875,4876,4877,4878,4879,4880,4881,4882,4883,4884,4885,4886,4887,4888,4850,4851,4852,4853,4854,4855,4856,4857,4858,4859,4860,
4889,4890,4891,4892,4893,4894,4895,4896,4897,4898,4899,4900,4901,4902,4903,4904,4905,4906,4907,4908,4909,4910,4911,4912,4913,4914,4915,4916,4917,4918,4919,4920,4921,4922,4923,4924,4925,4926,4927,4889,4890,4891,4892,4893,4894,4895,4896,4897,4898,4899,
4928,4929,4930,4931,4932,4933,4934,4935,4936,4937,4938,4939,4940,4941,4942,4943,4944,4945,4946,4947,4948,4949,4950,4951,4952,4953,4954,4955,4956,4957,4958,4959,4960,4961,4962,4963,4964,4965,4966,4928,4929,4930,4931,4932,4933,4934,4935,4936,4937,4938,
4967,4968,4969,4970,4971,4972,4973,4974,4975,4976,4977,4978,4979,4980,4981,4982,4983,4984,4985,4986,4987,4988,4989,4990,4991,4992,4993,4994,4995,4996,4997,4998,4999,5000,5001,5002,5003,5004,5005,4967,4968,4969,4970,4971,4972,4973,4974,4975,4976,4977,
5006,5007,5008,5009,5010,5011,5012,5013,5014,5015,5016,5017,5018,5019,5020,5021,5022,5023,5024,5025,5026,5027,5028,5029,5030,5031,5032,5033,5034,5035,5036,5037,5038,5039,5040,5041,5042,5043,5044,5006,5007,5008,5009,5010,5011,5012,5013,5014,5015,5016,
5045,5046,5047,5048,5049,5050,5051,5052,5053,5054,5055,5056,5057,5058,5059,5060,5061,5062,5063,5064,5065,5066,5067,5068,5069,5070,5071,5072,5073,5074,5075,5076,5077,5078,5079,5080,5081,5082,5083,5045,5046,5047,5048,5049,5050,5051,5052,5053,5054,5055,
5084,5085,5086,5087,5088,5089,5090,5091,5092,5093,5094,5095,5096,5097,5098,5099,5100,5101,5102,5103,5104,5105,5106,5107,5108,5109,5110,5111,5112,5113,5114,5115,5116,5117,5118,5119,5120,5121,5122,5084,5085,5086,5087,5088,5089,5090,5091,5092,5093,5094,
5123,5124,5125,5126,5127,5128,5129,5130,5131,5132,5133,5134,5135,5136,5137,5138,5139,5140,5141,5142,5143,5144,5145,5146,5147,5148,5149,5150,5151,5152,5153,5154,5155,5156,5157,5158,5159,5160,5161,5123,5124,5125,5126,5127,5128,5129,5130,5131,5132,5133,
5162,5163,5164,5165,5166,5167,5168,5169,5170,5171,5172,5173,5174,5175,5176,5177,5178,5179,5180,5181,5182,5183,5184,5185,5186,5187,5188,5189,5190,5191,5192,5193,5194,5195,5196,5197,5198,5199,5200,5162,5163,5164,5165,5166,5167,5168,5169,5170,5171,5172,
5201,5202,5203,5204,5205,5206,5207,5208,5209,5210,5211,5212,5213,5214,5215,5216,5217,5218,5219,5220,5221,5222,5223,5224,5225,5226,5227,5228,5229,5230,5231,5232,5233,5234,5235,5236,5237,5238,5239,5201,5202,5203,5204,5205,5206,5207,5208,5209,5210,5211,
5240,5241,5242,5243,5244,5245,5246,5247,5248,5249,5250,5251,5252,5253,5254,5255,5256,5257,5258,5259,5260,5261,5262,5263,5264,5265,5266,5267,5268,5269,5270,5271,5272,5273,5274,5275,5276,5277,5278,5240,5241,5242,5243,5244,5245,5246,5247,5248,5249,5250
</data>
 </layer>
 <layer id="4" name="ground_details" width="50" height="50">
  <data encoding="csv">
0,0,0,0,0,0,0,0,0,0,0,0,0,0,0,0,0,0,0,0,0,0,0,0,0,0,0,0,0,0,0,0,0,0,0,0,0,0,0,0,0,0,0,0,0,0,0,0,0,0,
0,0,0,0,0,0,0,0,0,0,0,0,0,0,0,0,0,0,0,0,0,0,0,0,0,0,0,0,0,0,0,0,0,0,0,0,0,0,0,0,0,0,0,0,0,0,0,0,0,0,
0,0,0,0,0,0,0,0,0,0,0,0,0,0,0,0,0,0,0,0,0,0,0,0,0,0,0,0,0,0,0,0,0,0,0,0,0,0,0,0,0,0,0,0,0,0,0,0,0,0,
0,0,0,0,0,0,0,0,0,0,0,0,0,0,0,0,0,0,0,0,0,0,0,0,0,0,0,0,0,0,0,0,0,0,0,0,0,0,0,0,0,0,0,0,0,0,0,0,0,0,
0,0,0,0,0,0,0,0,0,0,0,0,0,0,0,0,0,0,0,0,0,0,0,0,0,0,0,0,0,0,0,0,0,0,0,0,0,0,0,0,0,0,0,0,0,0,0,0,0,0,
0,0,0,0,0,0,0,0,0,0,0,0,0,0,0,0,0,0,0,0,0,0,0,0,0,0,0,0,0,0,0,0,0,0,0,0,0,0,0,0,0,0,0,0,0,0,0,0,0,0,
0,0,0,0,0,0,0,0,0,0,0,0,0,0,0,0,0,0,0,0,0,0,0,0,0,0,0,0,0,0,0,0,0,0,0,0,0,0,0,0,0,0,0,0,0,0,0,0,0,0,
0,0,0,0,0,0,0,0,0,0,0,0,0,0,0,0,0,0,0,0,0,0,0,0,0,0,0,0,0,0,0,0,0,0,0,0,0,0,0,0,0,0,0,0,0,0,0,0,0,0,
0,0,0,0,0,0,0,0,0,0,0,0,0,0,0,0,0,0,0,0,0,0,0,0,0,0,0,0,0,0,0,0,0,0,0,0,0,0,0,0,0,0,0,0,0,0,0,0,0,0,
0,0,0,0,0,0,0,0,0,0,0,0,0,0,0,0,0,0,0,0,0,0,0,0,0,0,0,0,0,0,0,0,0,0,0,0,0,0,0,0,0,0,0,0,0,0,0,0,0,0,
0,0,0,0,0,0,0,0,0,0,0,0,0,0,0,0,0,0,0,0,0,0,0,0,0,0,0,0,0,0,0,0,0,0,0,0,0,0,0,0,0,0,0,0,0,0,0,0,0,0,
0,0,0,0,0,0,0,0,0,0,0,0,0,0,0,0,0,0,0,0,0,0,0,0,0,0,0,0,0,0,0,0,0,0,0,0,0,0,0,0,0,0,0,0,0,0,0,0,0,0,
0,0,0,0,0,0,0,0,0,0,0,0,0,0,0,0,0,0,0,0,0,0,0,0,0,0,0,0,0,0,0,0,0,0,0,0,0,0,0,0,0,0,0,0,0,0,0,0,0,0,
0,0,0,0,0,0,0,0,0,0,0,0,0,0,0,0,0,0,0,0,0,0,0,0,0,0,0,0,0,0,0,0,0,0,0,0,0,0,0,4602,4603,4604,4605,4606,4607,4608,4609,0,0,0,
0,0,0,0,0,0,0,0,0,0,0,0,0,0,0,0,0,0,0,0,0,0,0,0,0,0,0,0,0,0,0,0,0,0,0,0,0,0,0,4650,4651,4652,4653,4654,4655,4656,4657,0,0,0,
0,0,0,0,0,0,0,0,0,0,0,0,0,0,0,0,0,0,0,0,0,0,0,0,0,0,0,0,0,0,0,0,0,0,0,0,0,0,0,4698,4699,4700,4701,4702,4703,4704,4705,0,0,0,
0,0,0,0,0,0,0,0,0,0,0,0,0,0,4567,4568,0,0,0,0,0,0,0,0,0,0,0,0,0,0,4567,4568,0,0,0,0,0,0,0,4746,4747,4748,4749,4750,4751,4752,4753,0,0,0,
0,0,0,0,0,0,4717,4718,4719,4720,4721,0,0,0,4615,4616,0,0,0,0,0,0,0,0,0,0,0,0,0,0,4615,4616,0,0,0,0,0,0,0,4794,4795,4796,4797,4798,4799,4800,4801,0,0,0,
0,0,0,0,0,0,4765,4766,4767,4768,4769,0,0,0,4663,4664,0,0,0,0,0,0,0,0,0,0,0,0,0,0,4663,4664,0,0,0,0,0,0,0,0,4646,4647,4648,4649,0,0,0,0,0,0,
0,0,0,0,0,0,0,0,0,0,0,0,0,0,4711,4712,0,0,0,0,0,0,0,0,0,0,0,0,0,0,4711,4712,0,0,0,0,0,0,0,0,4694,4695,4696,4697,0,0,0,0,0,0,
0,0,0,0,0,0,0,0,0,0,0,0,0,0,4759,4760,0,0,0,0,0,0,0,0,0,0,0,0,0,0,4759,4760,0,0,0,0,0,0,0,0,4742,4743,4744,4745,0,0,0,0,0,0,
0,0,0,0,0,0,0,0,0,0,0,0,0,0,0,0,0,0,0,0,0,0,0,0,0,0,0,0,0,0,0,0,0,0,0,0,0,0,0,0,4790,4791,4792,4793,0,0,0,0,0,0,
0,0,0,0,0,0,0,0,0,0,0,0,0,0,0,0,0,0,0,0,0,0,0,0,0,0,0,0,0,0,0,0,0,0,0,0,0,0,0,0,0,0,0,0,0,0,0,0,0,0,
0,0,0,0,0,0,0,0,0,0,0,0,0,0,4721,4722,0,0,0,0,0,0,0,0,0,0,0,0,0,0,0,0,0,0,0,0,0,0,0,0,0,0,0,0,0,0,0,0,0,0,
0,0,0,0,0,0,0,0,0,0,0,0,0,0,4769,4770,0,0,0,0,0,0,0,0,0,0,0,0,0,0,0,0,0,0,0,0,0,0,0,0,0,0,0,0,0,0,0,0,0,0,
0,0,0,0,0,0,0,0,0,0,0,0,0,0,0,0,0,0,0,0,0,0,0,0,0,0,0,0,0,0,0,0,0,0,0,0,0,0,0,0,0,0,0,0,0,0,1610614319,1610614367,3758098015,3758097967,
0,0,0,0,0,0,0,0,0,0,0,0,0,0,0,0,0,0,0,0,0,0,0,0,0,0,0,0,0,0,0,0,0,0,0,0,0,0,1570,1571,1568,1569,0,1585,1586,1587,1610614318,1610614366,3758098014,3758097966,
0,0,0,0,0,0,0,0,0,0,0,0,0,0,0,0,0,0,0,0,0,0,0,0,0,0,0,0,0,0,0,0,0,0,0,0,0,0,1618,1619,1616,1617,0,1633,1634,1635,1610614317,1610614365,3758098013,3758097965,
0,0,0,0,0,0,0,0,0,0,0,0,0,0,0,0,0,0,0,0,0,0,0,0,0,0,0,0,0,0,0,0,0,0,0,0,0,0,0,0,0,0,0,0,0,0,1610614319,1610614367,0,0,
0,0,0,0,0,0,0,0,0,0,0,0,0,4567,4568,0,0,0,0,0,0,0,0,0,0,0,0,0,0,0,0,0,0,0,0,0,0,0,0,0,0,0,1517,1518,1519,0,1610614318,1610614366,0,0,
0,0,0,0,0,0,0,0,0,0,0,0,0,4615,4616,0,0,0,0,0,0,0,0,0,0,0,0,0,0,0,0,0,0,0,0,0,0,0,0,0,0,0,1565,1566,1567,0,1610614317,1610614365,0,0,
0,0,0,0,0,0,0,0,0,0,0,0,0,4663,4664,0,0,0,0,0,0,0,0,0,0,0,0,0,0,0,0,0,0,0,0,0,0,0,0,0,0,0,1613,1614,1615,0,1610614319,1610614367,0,0,
0,0,0,0,0,0,0,0,0,0,0,0,0,4711,4712,0,0,0,0,0,0,0,0,0,0,0,0,0,0,0,0,0,0,0,0,0,0,0,0,0,0,0,1661,1662,1663,0,1610614318,1610614366,0,0,
0,0,0,0,0,0,0,0,0,0,0,0,0,4759,4760,0,0,0,0,0,0,0,0,0,0,0,0,0,0,0,0,0,0,0,0,0,0,0,0,0,0,0,0,0,0,0,1610614317,1610614365,0,0,
0,0,0,0,0,0,0,0,0,0,0,0,0,0,0,0,0,0,0,0,0,0,0,0,0,0,0,0,0,0,0,0,0,0,0,0,0,0,0,0,0,0,0,0,0,1610614411,1610614459,1610614507,0,0,
0,0,0,0,0,0,0,0,0,0,0,0,0,0,0,0,0,0,0,0,0,0,0,0,0,0,0,0,0,0,0,0,0,0,0,0,0,0,0,0,0,0,0,0,0,1610614410,1610614458,1610614506,0,0,
0,0,0,0,0,0,0,0,0,0,0,0,0,0,0,0,0,0,0,0,0,0,0,0,0,0,0,0,0,0,0,0,0,0,0,0,0,0,0,0,0,0,0,0,0,1610614409,1610614457,1610614505,0,0,
0,0,0,0,0,0,0,0,0,0,0,0,0,0,0,0,0,0,0,0,0,0,0,0,0,0,0,0,0,0,0,0,0,0,0,0,0,0,0,0,0,0,0,0,0,1610614408,1610614456,1610614504,0,0,
0,0,0,0,0,0,0,0,0,0,0,0,0,0,0,0,0,0,0,0,0,0,0,0,0,0,0,0,0,0,4567,4568,0,0,0,0,0,0,0,0,0,0,0,0,0,1610614407,1610614455,1610614503,0,0,
0,0,0,0,0,0,0,0,0,0,0,0,0,0,0,0,0,0,0,0,0,0,0,0,0,0,0,0,0,0,4615,4616,0,0,0,0,1669,1670,1671,1672,1673,1674,1675,0,0,1610614406,1610614454,1669,1670,1671,
0,0,0,0,0,0,0,0,0,0,0,0,0,0,0,0,0,0,0,0,0,0,0,0,0,0,0,0,0,0,4663,4664,0,0,0,0,1717,1718,1719,1720,1721,1722,1723,0,0,1610614405,1610614453,1717,1718,1719,
0,0,0,0,0,0,0,0,0,0,0,0,0,0,0,0,0,0,0,0,0,0,0,0,0,0,0,0,0,0,4711,4712,0,0,0,0,1765,1766,1767,1768,1769,1770,1771,0,0,0,0,0,0,0,
0,0,0,0,0,0,0,0,0,0,0,0,0,0,0,0,0,0,0,0,0,0,0,0,0,0,0,0,0,0,4759,4760,0,0,0,0,0,0,0,0,0,0,0,0,0,0,0,0,0,0,
0,0,0,0,0,0,0,0,0,0,0,0,0,0,0,0,0,0,0,0,0,0,0,0,0,0,0,0,0,0,0,0,0,0,0,0,0,0,0,1458,1459,1460,1461,1458,1459,1460,1461,1458,1459,1460,
0,0,0,0,0,0,0,0,0,0,0,0,0,0,0,0,0,0,0,0,0,0,0,0,0,0,0,0,0,0,0,0,0,0,0,0,0,0,0,1506,1507,1508,1509,1506,1507,1508,1509,1506,1507,1508,
0,0,0,0,0,0,0,0,0,0,0,0,0,0,0,0,0,0,0,0,0,0,0,0,0,0,0,0,0,0,0,0,0,0,0,0,0,0,0,1554,1555,1556,1557,1554,1555,1556,1557,1554,1555,1556,
0,0,0,0,0,0,0,0,0,0,0,0,0,0,0,0,0,0,0,0,0,0,0,0,0,0,0,0,0,0,0,0,0,0,0,0,0,0,0,1602,1603,1604,1605,1602,1603,1604,1605,1602,1603,1604,
0,0,0,0,0,0,0,0,0,0,0,0,0,0,0,0,0,0,0,0,0,0,0,0,0,0,0,0,0,0,0,0,0,0,0,0,0,0,0,1650,1651,1652,1653,1650,1651,1652,1653,1650,1651,1652,
0,0,0,0,0,0,0,0,0,0,0,0,0,0,0,0,0,0,0,0,0,0,0,0,0,0,0,0,0,0,0,0,0,0,0,0,0,0,0,1698,1699,1700,1701,1698,1699,1700,1701,1698,1699,1700,
0,0,0,0,0,0,0,0,0,0,0,0,0,0,0,0,0,0,0,0,0,0,0,0,0,0,0,0,0,0,0,0,0,0,0,0,0,0,0,0,0,0,0,0,0,0,0,0,0,0
</data>
 </layer>
 <layer id="6" name="collision" width="50" height="50">
  <data encoding="csv">
0,0,0,0,0,0,0,0,0,0,0,0,0,0,0,0,0,0,0,0,0,0,0,0,0,0,0,0,0,0,0,0,0,0,0,0,0,0,0,0,0,0,0,0,0,0,0,0,0,0,
0,0,0,0,0,0,0,0,0,0,0,0,0,0,0,0,0,0,0,0,0,0,0,0,0,0,0,0,0,0,0,0,0,0,0,0,0,0,0,0,0,0,0,0,0,0,0,0,0,0,
0,0,0,0,0,0,0,0,0,0,0,0,0,0,0,0,0,0,0,0,4492,4492,4492,4492,4492,4492,4492,0,0,0,0,0,0,0,0,0,0,0,0,0,0,0,0,0,0,0,0,0,0,0,
0,0,0,0,0,0,0,0,0,0,0,0,0,0,0,0,0,0,0,0,4492,0,0,0,0,0,4492,0,0,0,0,0,0,0,0,0,0,0,0,0,0,0,0,0,0,0,0,0,0,0,
0,0,0,0,0,0,0,0,0,0,0,0,0,0,0,0,0,0,0,0,4492,0,0,0,0,0,4492,4492,0,0,0,0,0,0,0,0,0,0,0,0,0,0,0,0,0,0,0,0,0,0,
0,4492,0,0,0,0,0,0,0,0,0,0,4492,4492,0,0,0,0,0,0,4492,0,0,0,0,0,4492,0,0,0,0,0,0,0,0,0,0,0,0,0,0,0,0,0,0,0,0,0,0,0,
0,4492,0,0,0,0,0,0,4492,0,0,0,0,4492,0,0,0,4492,0,0,4492,0,0,0,0,0,4492,0,0,0,0,0,0,0,0,0,4492,0,0,4492,0,0,0,0,0,4492,0,0,0,0,
0,4492,0,0,0,4492,0,0,4492,0,4492,0,4492,4492,0,0,0,4492,4492,0,4492,0,0,0,0,0,4492,0,0,0,0,0,0,0,0,0,4492,0,0,4492,0,0,0,0,0,4492,0,0,0,0,
0,4492,0,0,0,4492,0,0,4492,0,4492,4492,4492,0,0,0,0,0,4492,0,4492,0,0,0,0,0,4492,4492,0,0,0,0,0,0,0,0,4492,0,0,4492,0,0,0,0,0,4492,4492,0,0,0,
0,4492,0,0,0,4492,0,0,4492,0,4492,4492,4492,0,0,0,0,4492,4492,0,4492,0,0,0,0,0,4492,4492,0,0,4492,4492,0,0,0,0,4492,0,0,4492,4492,0,0,0,4492,4492,4492,0,0,0,
0,4492,4492,4492,4492,4492,0,0,4492,4492,4492,0,4492,4492,4492,4492,4492,4492,0,0,4492,4492,4492,4492,4492,4492,4492,4492,0,0,0,4492,4492,4492,4492,4492,4492,0,0,4492,4492,4492,4492,4492,4492,4492,0,0,0,0,
0,0,0,0,0,0,0,0,0,0,0,0,0,0,0,0,0,0,0,0,0,0,0,0,0,0,0,0,0,0,0,0,0,0,0,0,0,0,0,0,0,0,0,0,0,0,0,0,0,0,
0,0,0,0,0,0,0,0,0,0,0,0,0,0,0,0,0,0,0,0,0,0,0,0,0,0,0,0,0,0,0,0,0,0,0,0,0,0,0,0,0,0,0,0,0,0,0,0,0,0,
0,0,0,0,0,0,0,0,0,0,0,0,0,0,0,0,0,0,0,0,0,0,0,0,0,0,0,0,0,0,0,0,0,0,0,0,0,0,0,0,0,0,0,0,0,0,0,0,0,0,
0,0,0,0,0,0,0,0,0,0,0,0,0,0,0,0,0,0,0,0,0,0,0,0,0,0,0,0,0,0,0,0,0,0,0,0,0,0,0,0,0,4493,4493,4493,4493,0,0,0,0,0,
0,0,0,0,0,0,0,0,0,0,0,0,0,0,0,0,0,0,0,0,0,0,0,0,0,0,0,0,0,0,0,0,0,0,0,0,0,0,0,0,4493,4493,4493,4493,4493,4493,0,0,0,0,
0,0,0,0,0,0,0,0,0,0,0,0,0,0,0,0,0,0,0,0,0,0,0,0,0,0,0,0,0,0,0,0,0,0,0,0,0,0,0,0,0,4493,4493,4493,0,0,0,0,0,0,
0,0,0,0,0,0,0,0,0,0,0,0,0,0,0,0,0,0,0,0,0,0,0,0,0,0,0,0,0,0,0,0,0,0,0,0,0,0,0,0,0,0,0,0,0,0,0,0,0,0,
0,0,0,0,0,0,0,4493,4493,4493,0,4816,0,0,0,0,0,0,0,0,0,0,0,0,0,0,0,0,0,0,0,0,0,0,0,0,0,0,0,0,0,0,4493,0,0,0,0,0,0,0,
0,0,0,0,0,0,0,4816,0,4816,0,0,0,0,0,4492,0,0,0,0,0,0,0,0,0,0,0,0,0,0,0,4492,0,0,0,0,0,0,0,0,0,4493,4493,4493,0,0,0,0,0,0,
0,0,0,0,0,0,4816,4816,4816,4816,0,4816,4816,4816,0,0,0,0,0,0,0,0,0,0,0,0,0,0,0,0,0,0,0,0,0,0,0,0,0,0,0,4493,4493,4493,0,0,0,0,0,0,
0,0,0,0,0,0,4492,4492,4492,4492,4492,4816,4816,4816,0,0,0,0,0,0,0,0,0,0,0,0,0,0,0,0,0,0,0,4492,4492,4492,4492,4492,0,0,0,0,0,0,0,0,0,0,0,0,
0,0,0,0,0,0,4492,4492,4492,4492,4492,4816,4816,4816,0,0,0,0,0,0,0,0,0,0,0,0,0,0,0,0,0,0,0,0,4492,4492,4492,4492,0,0,0,0,0,0,0,0,0,0,0,0,
0,0,0,0,0,0,4492,4492,4492,4492,4492,4816,4816,4816,0,0,0,0,0,0,0,0,0,0,0,0,0,0,0,0,0,0,0,0,4492,4492,4492,4492,0,0,0,0,0,0,0,0,0,0,0,0,
0,0,0,0,0,0,4492,4492,4492,4492,4492,0,0,4816,0,4493,0,0,0,0,0,0,0,0,0,0,0,0,0,0,0,0,0,0,4492,4492,4492,4492,0,0,0,0,0,0,0,0,0,0,0,0,
0,0,0,0,0,0,4492,4492,4492,4492,4492,4492,0,4816,0,0,0,0,0,0,0,0,0,0,0,0,0,0,0,0,0,0,0,0,4492,4492,4492,4492,0,0,0,0,0,0,0,0,0,0,0,0,
0,0,0,0,0,0,4492,4492,4492,4816,4492,4492,4816,4816,0,0,0,0,0,0,0,0,0,0,0,0,0,0,0,0,0,0,0,0,4492,4492,4492,4492,0,4492,4492,4492,0,0,0,0,4492,4492,4492,4492,
0,0,0,0,0,0,4492,4492,4492,4492,4492,4492,4816,0,0,0,0,0,0,0,0,0,0,0,0,0,0,0,0,0,0,0,0,0,4492,4492,4492,4492,0,4492,4492,4492,0,4492,4492,0,4492,4492,4492,4492,
0,0,0,0,0,0,4492,4492,4492,4492,4492,4492,4816,0,0,0,0,0,0,0,0,0,0,0,0,0,0,0,0,0,0,0,0,0,4492,4492,4492,4492,0,0,0,0,0,0,0,0,4492,4492,0,0,
0,0,0,0,0,0,0,0,0,0,0,0,4816,4816,0,0,0,0,0,0,0,0,0,0,0,0,0,0,0,0,0,0,0,0,4492,4492,4492,4492,0,0,0,0,0,0,0,0,4492,4492,0,0,
0,0,0,0,0,0,0,0,0,0,0,0,0,0,0,0,0,0,0,0,0,0,0,0,0,0,0,0,0,0,0,0,0,0,4492,4492,0,0,0,0,0,0,0,4492,0,0,4492,4492,0,0,
0,0,0,0,0,0,0,0,0,0,0,0,0,0,0,0,0,0,0,0,0,0,0,0,0,0,0,0,0,0,0,0,0,0,0,0,0,0,0,0,0,0,4492,4492,4492,0,4492,4492,0,0,
0,0,0,0,0,0,0,0,0,0,0,0,0,0,4492,0,0,0,0,0,0,0,0,0,0,0,0,0,0,0,0,0,0,0,4492,4492,4492,4492,4492,0,0,0,0,4492,0,0,4492,4492,0,0,
0,0,0,0,0,0,4492,4492,4492,0,4492,0,0,0,0,0,0,0,0,0,0,0,0,0,0,0,0,0,0,0,0,0,0,0,4492,0,0,0,4492,0,0,0,0,0,0,0,4492,4492,0,0,
0,0,0,0,0,0,4492,4492,4492,0,4492,0,0,0,0,0,0,0,0,0,0,0,0,0,0,0,0,0,0,0,0,0,0,0,4492,0,0,0,4492,0,0,0,0,0,0,0,0,0,0,0,
0,0,0,0,0,0,4492,4492,4492,4492,0,0,0,0,0,0,0,0,0,0,0,0,0,0,0,0,0,0,0,0,0,0,0,0,4492,0,0,0,4492,0,0,0,0,0,0,0,4492,0,0,0,
0,0,0,0,0,0,4492,4492,4492,4492,0,0,0,0,0,0,0,0,0,0,0,0,0,0,0,0,0,0,0,0,0,0,0,0,4492,0,0,0,4492,0,0,0,0,0,0,0,4492,0,0,0,
0,0,0,0,0,0,4492,4492,4492,4492,4492,0,0,0,0,0,0,0,0,0,0,0,0,0,0,0,0,0,0,0,0,0,0,0,4492,0,0,0,4492,0,0,0,0,0,0,0,4492,0,0,0,
0,0,0,0,0,0,4492,4492,4492,4492,4492,0,0,0,0,0,0,0,0,0,0,0,0,0,0,0,0,0,0,0,0,0,0,0,4492,0,0,0,4492,0,0,0,0,0,0,0,4492,0,0,0,
0,0,0,0,0,0,4492,4492,4492,4492,4492,0,0,0,0,0,0,0,0,0,0,0,0,0,0,0,0,0,0,0,0,0,0,0,4492,4492,4492,4492,4492,0,0,0,0,0,0,0,4492,0,0,0,
0,0,0,0,0,0,4492,4492,4492,4492,0,0,0,0,0,0,0,0,0,0,0,0,0,0,0,0,0,0,0,0,0,0,0,0,4492,4492,4492,4492,4492,4492,4492,4492,4492,0,0,0,4492,4492,4492,4492,
0,0,0,0,0,0,4492,4492,4492,4492,4492,0,0,0,0,0,0,0,0,0,0,0,0,0,0,0,0,0,0,0,0,4492,0,0,0,0,0,0,0,0,0,0,0,0,0,0,0,0,0,0,
0,0,0,0,0,0,4492,4492,4492,4492,4492,0,0,0,0,0,0,0,0,0,0,0,0,0,0,0,0,0,0,0,0,0,0,0,0,0,0,0,0,0,0,0,0,0,0,0,0,0,0,0,
0,0,0,0,0,0,0,0,0,0,0,0,0,0,0,0,0,0,0,0,0,0,0,0,0,0,0,0,0,0,0,0,0,0,0,0,0,0,0,0,0,0,0,0,0,0,0,0,0,0,
0,0,0,0,0,0,4492,4492,4492,0,0,0,0,0,0,0,0,0,0,0,0,0,0,0,0,0,0,0,0,0,0,0,0,0,0,0,0,0,0,0,0,0,0,0,0,0,0,0,0,0,
0,0,0,0,0,4492,4492,0,4492,4492,4492,0,0,0,0,0,0,0,0,0,0,0,0,0,0,0,0,0,0,0,0,0,0,0,4492,4492,4492,4492,4492,0,0,0,0,0,0,0,0,0,0,0,
0,0,0,0,0,0,4492,4492,4492,4492,4492,0,0,0,0,0,0,0,0,0,0,0,0,0,0,0,0,0,0,0,0,0,0,0,4492,0,0,0,4492,0,0,0,0,0,0,0,0,0,0,0,
0,0,0,0,0,0,4492,4492,4492,4492,4492,0,0,0,0,0,0,0,0,0,0,0,0,0,0,0,0,0,0,0,0,0,0,0,4492,4492,4492,4492,4492,4492,4492,4492,4492,4492,4492,4492,4492,4492,4492,4492,
0,0,0,0,0,0,0,0,0,0,0,0,0,0,0,0,0,0,0,0,0,0,0,0,0,0,0,0,0,0,0,0,0,0,4492,0,0,0,0,4492,4492,4492,4492,4492,4492,4492,4492,4492,4492,4492,
0,0,0,0,0,0,0,0,0,0,0,0,0,0,0,0,0,0,0,0,0,0,0,0,0,0,0,0,0,0,0,0,0,0,0,0,0,0,0,0,0,0,0,0,0,0,0,0,0,0
</data>
 </layer>
 <layer id="7" name="objects" width="50" height="50">
  <data encoding="csv">
0,0,0,0,0,0,0,0,0,0,0,0,0,0,0,0,0,0,0,276,277,278,279,280,281,282,283,284,285,0,0,0,0,0,0,0,0,0,0,0,0,0,0,0,0,0,0,0,0,0,
0,0,0,0,0,0,0,0,0,0,0,0,0,0,0,0,0,0,0,324,325,326,327,328,329,330,331,332,333,0,0,0,0,0,0,0,0,0,0,0,0,0,0,0,0,0,0,0,0,0,
0,0,0,0,0,0,0,0,0,0,0,343,344,345,346,347,348,349,350,351,373,374,375,376,377,378,379,380,381,0,0,0,0,0,0,0,0,0,0,0,0,0,0,0,0,0,0,0,0,0,
0,0,0,0,0,0,0,817,818,819,820,821,392,393,394,395,396,397,398,399,421,422,423,424,425,426,427,428,429,0,0,0,0,0,0,0,0,0,0,0,0,0,0,0,0,0,0,0,0,0,
786,787,788,789,790,791,792,865,866,867,868,869,440,441,442,443,444,445,446,447,469,470,471,472,473,474,475,476,477,823,824,825,826,827,828,829,830,831,823,824,825,826,827,828,829,830,831,0,0,0,
834,835,836,837,838,839,840,913,914,915,916,917,488,489,490,491,492,493,494,495,517,518,519,520,521,522,523,524,525,871,872,873,874,875,876,877,878,879,871,872,873,874,875,876,877,878,879,0,0,0,
882,883,884,885,886,887,888,961,962,963,964,965,536,537,538,539,540,541,542,543,565,566,567,568,569,570,571,572,573,919,920,921,922,923,924,925,926,927,919,920,921,922,923,924,925,926,927,0,0,0,
930,931,932,933,934,935,936,1009,1010,1011,1012,1013,584,585,586,587,588,589,590,591,613,614,615,616,617,618,619,620,621,967,968,969,970,971,972,973,974,975,967,968,969,970,971,972,973,974,975,0,0,0,
978,979,980,981,982,983,984,1057,1058,1059,1060,1061,632,633,634,635,636,637,638,639,661,662,663,664,665,666,667,668,669,1015,1016,1017,1018,1019,1020,1021,1022,1023,1015,1016,1017,1018,1019,1020,1021,1022,1023,0,0,0,
1026,1027,1028,1029,1030,1031,1032,1105,1106,1107,1108,1109,680,681,682,683,684,685,686,687,709,710,711,712,713,714,715,716,717,1063,1064,1065,1066,1067,1068,1069,1070,1071,1063,1064,1065,1066,1067,1068,1069,1070,1071,0,0,0,
1074,1075,1076,1077,1078,1079,1080,1153,1154,1155,1156,1157,728,729,730,731,732,733,734,735,757,758,759,760,761,762,763,764,765,1111,1112,1113,1114,1115,1116,1117,1118,1119,1111,1112,1113,1114,1115,1116,1117,1118,1119,0,0,0,
1122,1123,1124,1125,1126,1127,1128,0,0,0,0,775,776,777,778,779,780,781,782,783,805,806,807,808,809,810,811,812,813,1159,1160,1161,1162,1163,1164,1165,1166,1167,1159,1160,1161,1162,1163,1164,1165,1166,1167,0,0,0,
0,0,0,0,0,0,0,0,0,0,0,0,0,0,0,0,0,0,0,0,0,0,0,0,0,0,0,0,0,0,0,0,0,0,0,0,0,0,0,0,0,0,0,0,0,0,0,0,0,0,
0,0,0,0,0,0,0,0,0,0,0,0,0,0,0,0,0,0,0,0,0,0,0,0,0,0,0,0,0,0,0,0,0,0,0,0,0,0,0,0,0,0,0,0,0,0,0,0,0,0,
0,0,0,0,0,0,0,0,0,0,0,0,0,0,0,0,0,0,0,0,0,0,0,0,0,0,0,0,0,0,0,0,0,0,0,0,0,0,0,0,0,0,0,0,0,0,0,0,0,0,
0,0,0,0,0,0,0,0,0,0,0,0,0,0,0,0,0,0,0,0,0,0,0,0,0,0,0,0,0,0,0,0,0,0,0,0,0,0,0,0,0,0,0,0,0,0,0,0,0,0,
0,0,0,0,0,0,0,0,0,0,0,0,0,0,0,0,0,0,0,0,0,0,0,0,0,0,0,0,0,0,0,0,0,0,0,0,0,0,0,0,0,0,0,0,0,0,0,0,0,0,
0,0,0,0,0,0,0,0,0,0,0,0,0,0,0,0,0,0,0,0,0,0,0,0,0,0,0,0,0,0,0,0,0,0,0,0,0,0,0,0,0,0,0,0,0,0,0,0,0,0,
0,0,0,0,0,0,0,0,0,0,0,0,0,0,0,0,0,0,0,0,0,0,0,0,0,0,0,0,0,0,0,0,0,0,0,0,0,0,0,0,0,0,0,0,0,0,0,0,0,0,
0,0,0,0,0,0,0,0,0,0,0,0,0,0,0,0,0,0,0,0,0,0,0,0,0,0,0,0,0,0,0,0,0,0,0,0,0,0,0,0,0,0,0,0,0,0,0,0,0,0,
0,0,0,0,0,1610616062,1610616110,1610616158,1610616206,1610616254,1610616302,1610616350,1610616398,1610616446,0,0,0,0,0,0,0,0,0,0,0,0,0,0,0,0,0,0,0,0,0,0,0,0,0,0,0,0,0,0,0,0,0,0,0,0,
0,0,0,0,0,1610616061,1610616109,1610616157,1610616205,1610616253,1610616301,1610616349,1610616397,1610616445,0,0,0,0,0,0,0,0,0,0,0,0,0,0,0,0,0,0,2684358665,2684358617,2684358569,2684358521,2684358473,2684358425,2684358377,0,0,0,0,0,0,0,0,0,0,0,
0,0,0,0,0,1610616060,1610616108,1610616156,1610616204,1610616252,1610616300,1610616348,1610616396,1610616444,0,0,0,0,0,0,0,0,0,0,0,0,0,0,0,0,0,0,2684358666,2684358618,2684358570,2684358522,2684358474,2684358426,2684358378,0,0,0,0,0,0,0,0,0,0,0,
0,0,0,0,0,1610616059,1610616107,1610616155,1610616203,1610616251,1610616299,1610616347,1610616395,1610616443,0,0,0,0,0,0,0,0,0,0,0,0,0,0,0,0,0,0,2684358667,2684358619,2684358571,2684358523,2684358475,2684358427,2684358379,0,0,0,0,0,0,0,0,0,0,0,
0,0,0,0,0,1610616058,1610616106,1610616154,1610616202,1610616250,1610616298,1610616346,1610616394,1610616442,0,0,0,0,0,0,0,0,0,0,0,0,0,0,0,0,0,0,2684358668,2684358620,2684358572,2684358524,2684358476,2684358428,2684358380,0,0,0,0,0,0,0,0,0,0,0,
0,0,0,0,0,1610616057,1610616105,1610616153,1610616201,1610616249,1610616297,1610616345,1610616393,1610616441,0,0,0,0,0,0,0,0,0,0,0,0,0,0,0,0,0,0,2684358669,2684358621,2684358573,2684358525,2684358477,2684358429,2684358381,0,0,0,0,0,0,0,0,0,0,0,
0,0,0,0,0,1610616056,1610616104,1610616152,1610616200,1610616248,1610616296,1610616344,1610616392,1610616440,0,0,0,0,0,0,0,0,0,0,0,0,0,0,0,0,0,0,2684358670,2684358622,2684358574,2684358526,2684358478,2684358430,2684358382,0,0,0,0,0,0,0,0,0,0,0,
0,0,0,0,0,1610616055,1610616103,1610616151,1610616199,1610616247,1610616295,1610616343,1610616391,1610616439,0,0,0,0,0,0,0,0,0,0,0,0,0,0,0,0,0,0,2684358671,2684358623,2684358575,2684358527,2684358479,2684358431,2684358383,0,0,0,0,0,0,0,0,0,0,0,
0,0,0,0,0,1610616054,1610616102,1610616150,1610616198,1610616246,1610616294,1610616342,1610616390,1610616438,0,0,0,0,0,0,0,0,0,0,0,0,0,0,0,0,0,0,2684358672,2684358624,2684358576,2684358528,2684358480,2684358432,2684358384,0,0,0,0,0,0,0,0,0,0,0,
0,0,0,0,0,1610616053,1610616101,1610616149,1610616197,1610616245,1610616293,1610616341,1610616389,1610616437,0,0,0,0,0,0,0,0,0,0,0,0,0,0,0,0,0,0,2684358673,2684358625,2684358577,2684358529,2684358481,2684358433,2684358385,0,0,0,0,0,0,0,0,0,0,0,
0,0,0,0,0,0,1610616100,1610616148,1610616196,1610616244,0,0,1610616388,1610616436,0,0,0,0,0,0,0,0,0,0,0,0,0,0,0,0,0,0,2684358674,2684358626,2684358578,2684358530,2684358482,2684358434,2684358386,0,0,0,0,0,0,0,0,0,0,0,
0,0,0,0,0,0,0,0,0,0,0,0,0,0,0,0,0,0,0,0,0,0,0,0,0,0,0,0,0,0,0,0,2684358676,2684358628,2684358580,2684358532,2684358484,2684358436,2684358388,2684358340,0,0,0,0,0,0,0,0,0,0,
0,0,0,0,0,1610616503,1610616551,1610616599,1610616647,1610616695,1610616743,1610616791,1610616839,0,0,0,0,0,0,0,0,0,0,0,0,0,0,0,0,0,0,0,2684358677,2684358629,2684358581,2684358533,2684358485,2684358437,2684358389,2684358341,0,0,0,0,0,0,0,0,0,0,
0,0,0,0,0,1610616502,1610616550,1610616598,1610616646,1610616694,1610616742,1610616790,1610616838,0,0,0,0,0,0,0,0,0,0,0,0,0,0,0,0,0,0,0,2684358678,2684358630,2684358582,2684358534,2684358486,2684358438,2684358390,2684358342,0,0,0,0,0,0,0,0,0,0,
0,0,0,0,0,1610616501,1610616549,1610616597,1610616645,1610616693,1610616741,1610616789,1610616837,0,0,0,0,0,0,0,0,0,0,0,0,0,0,0,0,0,0,0,2684358679,2684358631,2684358583,2684358535,2684358487,2684358439,2684358391,2684358343,0,0,0,0,0,0,0,0,0,0,
0,0,0,0,0,1610616500,1610616548,1610616596,1610616644,1610616692,1610616740,1610616788,1610616836,0,0,0,0,0,0,0,0,0,0,0,0,0,0,0,0,0,0,0,2684358680,2684358632,2684358584,2684358536,2684358488,2684358440,2684358392,2684358344,0,0,0,0,0,0,0,0,0,0,
0,0,0,0,0,1610616499,1610616547,1610616595,1610616643,1610616691,1610616739,1610616787,1610616835,0,0,0,0,0,0,0,0,0,0,0,0,0,0,0,0,0,0,0,2684358681,2684358633,2684358585,2684358537,2684358489,2684358441,2684358393,2684358345,0,0,0,0,0,0,0,0,0,0,
0,0,0,0,0,1610616498,1610616546,1610616594,1610616642,1610616690,1610616738,1610616786,1610616834,0,0,0,0,0,0,0,0,0,0,0,0,0,0,0,0,0,0,0,2684358682,2684358634,2684358586,2684358538,2684358490,2684358442,2684358394,2684358346,0,0,0,0,0,0,0,0,0,0,
0,0,0,0,0,1610616497,1610616545,1610616593,1610616641,1610616689,1610616737,1610616785,1610616833,0,0,0,0,0,0,0,0,0,0,0,0,0,0,0,0,0,0,0,2684358683,2684358635,2684358587,2684358539,2684358491,2684358443,2684358395,2684358347,0,0,0,0,0,0,0,0,0,0,
0,0,0,0,0,1610616496,1610616544,1610616592,1610616640,1610616688,1610616736,1610616784,1610616832,0,0,0,0,0,0,0,0,0,0,0,0,0,0,0,0,0,0,0,2684358684,2684358636,2684358588,2684358540,2684358492,2684358444,2684358396,2684358348,0,0,0,0,0,0,0,0,0,0,
0,0,0,0,0,1610616495,1610616543,1610616591,1610616639,1610616687,1610616735,1610616783,1610616831,0,0,0,0,0,0,0,0,0,0,0,0,0,0,0,0,0,0,0,2684358685,2684358637,2684358589,2684358541,2684358493,2684358445,2684358397,2684358349,0,0,0,0,0,0,0,0,0,0,
0,0,0,0,0,1610616494,1610616542,1610616590,1610616638,1610616686,1610616734,1610616782,1610616830,0,0,0,0,0,0,0,0,0,0,0,0,0,0,0,0,0,0,0,2684358686,2684358638,2684358590,2684358542,2684358494,2684358446,2684358398,2684358350,0,0,0,0,0,0,0,0,0,0,
0,0,0,0,0,1610616493,1610616541,1610616589,1610616637,1610616685,1610616733,1610616781,1610616829,0,0,0,0,0,0,0,0,0,0,0,0,0,0,0,0,0,0,0,0,0,0,0,0,0,0,0,0,0,0,0,0,0,0,0,0,0,
0,0,0,0,0,1610616491,1610616539,1610616587,1610616635,1610616683,1610616731,1610616779,1610616827,0,0,0,0,0,0,0,0,0,0,0,0,0,0,0,0,0,0,0,0,0,0,0,0,0,0,0,0,0,0,0,0,0,0,0,0,0,
0,0,0,0,0,1610616490,1610616538,1610616586,1610616634,1610616682,1610616730,1610616778,1610616826,0,0,0,0,0,0,0,0,0,0,0,0,0,0,0,0,0,0,0,2684358646,2684358598,2684358550,2684358502,2684358454,2684358406,2684358358,2684358310,0,0,0,0,0,0,0,0,0,0,
0,0,0,0,0,1610616489,1610616537,1610616585,1610616633,1610616681,1610616729,1610616777,1610616825,0,0,0,0,0,0,0,0,0,0,0,0,0,0,0,0,0,0,0,2684358647,2684358599,2684358551,2684358503,2684358455,2684358407,2684358359,2684358311,0,0,0,0,0,0,0,0,0,0,
0,0,0,0,0,1610616488,1610616536,1610616584,1610616632,1610616680,1610616728,1610616776,1610616824,0,0,0,0,0,0,0,0,0,0,0,0,0,0,0,0,0,0,0,2684358648,2684358600,2684358552,2684358504,2684358456,2684358408,2684358360,2684358312,0,0,0,0,0,0,0,0,0,0,
0,0,0,0,0,1610616487,1610616535,1610616583,1610616631,1610616679,1610616727,1610616775,1610616823,0,0,0,0,0,0,0,0,0,0,0,0,0,0,0,0,0,0,0,2684358649,2684358601,2684358553,2684358505,2684358457,2684358409,2684358361,2684358313,0,0,0,0,0,0,0,0,0,0,
0,0,0,0,0,1610616486,1610616534,1610616582,1610616630,1610616678,1610616726,1610616774,1610616822,0,0,0,0,0,0,0,0,0,0,0,0,0,0,0,0,0,0,0,2684358650,2684358602,2684358554,2684358506,2684358458,2684358410,2684358362,2684358314,0,0,0,0,0,0,0,0,0,0,
0,0,0,0,0,1610616485,1610616533,1610616581,1610616629,1610616677,1610616725,1610616773,1610616821,0,0,0,0,0,0,0,0,0,0,0,0,0,0,0,0,0,0,0,2684358651,2684358603,2684358555,2684358507,2684358459,2684358411,2684358363,2684358315,0,0,0,0,0,0,0,0,0,0
</data>
 </layer>
</map>
